X:NEW 15-28
C:David Linton <djl@colourcountry.net>
M:6/8,9/8
K:Am
P:A
"Am"A3 a2e | "C"g3 g2e dcB | "F"A2B c2e |1 "C"g3 g2e dcB :|2 "C"g3 g2e | d2c BAG
P:B 
"Dm"F3 F2G | "Am"e3 e2d cBA | "G"G3 G2B |1 "Em"g2e d2c BAG :|2 g3 efe dcB

